X: 2018
T: Let's Walk to Town
R: reel
C: Rick Gagne
N: 1988 on tenor banjo and whistle
M: 4/4
Q: 1/4=175
K: A
FA | "A"EA~A2 cABc | "Bm"dcAB "F#m"c2AF | "A"EFAB cABc |\
"Bm"dcAF "D"A2FA | 
"A"EA~A2 cABc | "Bm"dcAB "A"cABc | "D"defd "A"eaec | "Bm"dcAF "D"A2 :|
Bc | "D"defd "A"eA~A2 | "Bm"dcAB "A"c2Bc | "D"defd "A"ecAc |\
"Bm"dcAF "E"E2E2 | 
"D"defd "A"eA~A2 | "Bm"dcAB "F#m"cABc | "D"defd "A"eaec | "Bm"dcAF "D"A2 :|
